X:405
T:Reel 405
M:4/4
K:Emin
L:1/8
B>A (3GFE D>E (3GFE |A>d (3dcd e>B (3AGF |A>d (3dDD d>E (3FGA |d>ed>f e>d (3dcd ||d>B (3FGF G>B (3AGF |E>E (3EEE e2de|f>e (3ede f2ed|Bded edefg>e|d>B (3dcd e>d (3ddd |A>D (3DDF A>D (3FGA |d>d (3ddd e>d (3ddd |A>D (3DDd A>D (3DEF |GFEF GABc|dBec defed|Beed e2de|fded cded|A>A (3AGF d>E (3FGA |A>d (3ddd e>d (3ddd |f>e (3ede e2de|f>d (3
